X:1
T:MacArthur Road
R:reel
M:4/4
L:1/8
K:E
|:~B2BG Bcef|~g2ge fece|~f2fg fece|aege fece|
|~B2BG Bcef|~g2ge fece|~f2fg fecA|1 Bcef ~e2ec:|2 Bcef ~e2ga|]
|be~e2 bec'e|be~e2 fece|~f2fg fece|aege fece|
|be~e2 bec'e|be~e2 fece|~f2fg fecA|Bcef ~e2ga|
|be~e2 bec'e|be~e2 fece|~f2fg fece|aege fece|
|~B2BG Bcef|~g2ge fece|~f2fg fecA|Bcef ~e2ec|